images/ICONOS/INFO/CARTA.svg

<svg width="16" height="12" viewBox="0 0 16 12" fill="none" xmlns="http://www.w3.org/2000/svg">
<path d="M2.43055 11.585C2.03231 11.585 1.69128 11.4431 1.40745 11.1593C1.12362 10.8754 0.98194 10.5346 0.982423 10.1369V1.44813C0.982423 1.04989 1.12434 0.708858 1.40817 0.425026C1.692 0.141193 2.0328 -0.000481479 2.43055 1.22931e-06H14.0156C14.4138 1.22931e-06 14.7548 0.141917 15.0387 0.42575C15.3225 0.709582 15.4642 1.05037 15.4637 1.44813V10.1369C15.4637 10.5351 15.3218 10.8761 15.0379 11.16C14.7541 11.4438 14.4133 11.5855 14.0156 11.585H2.43055ZM8.22305 6.51656L14.0156 2.89625V1.44813L8.22305 5.06844L2.43055 1.44813V2.89625L8.22305 6.51656Z" fill="white"/>
</svg>

<svg width="16" height="12" fill="none" xmlns="http://www.w3.org/2000/svg"><path d="M2.43 11.585c-.398 0-.739-.142-1.023-.426a1.392 1.392 0 0 1-.425-1.022V1.448c0-.398.142-.74.426-1.023A1.392 1.392 0 0 1 2.431 0h11.585c.398 0 .739.142 1.023.426.284.284.425.624.425 1.022v8.689c0 .398-.142.74-.426 1.023a1.392 1.392 0 0 1-1.022.425H2.43Zm5.793-5.068 5.793-3.62V1.447l-5.793 3.62-5.792-3.62v1.448l5.792 3.62Z" fill="#fff"/></svg>
